docs/virtualmethod.svg

<?xml version="1.0" encoding="UTF-8" standalone="no"?>
<svg
   xmlns:osb="http://www.openswatchbook.org/uri/2009/osb"
   xmlns:dc="http://purl.org/dc/elements/1.1/"
   xmlns:cc="http://creativecommons.org/ns#"
   xmlns:rdf="http://www.w3.org/1999/02/22-rdf-syntax-ns#"
   xmlns:svg="http://www.w3.org/2000/svg"
   xmlns="http://www.w3.org/2000/svg"
   xmlns:xlink="http://www.w3.org/1999/xlink"
   width="16.036167"
   version="1.1"
   id="svg7384"
   height="16">
  <metadata
     id="metadata90">
    <rdf:RDF>
      <cc:Work
         rdf:about="">
        <dc:format>image/svg+xml</dc:format>
        <dc:type
           rdf:resource="http://purl.org/dc/dcmitype/StillImage" />
        <dc:title>elementary Symbolic Icon Theme</dc:title>
      </cc:Work>
    </rdf:RDF>
  </metadata>
  <title
     id="title9167">elementary Symbolic Icon Theme</title>
  <defs
     id="defs7386">
    <linearGradient
       id="linearGradient4169">
      <stop
         style="stop-color:#403757;stop-opacity:1;"
         offset="0"
         id="stop4171" />
      <stop
         style="stop-color:#403757;stop-opacity:0;"
         offset="1"
         id="stop4173" />
    </linearGradient>
    <linearGradient
       xlink:href="#linearGradient4169"
       id="linearGradient4175"
       x1="2.3021808"
       y1="5.7507787"
       x2="0"
       y2="7"
       gradientUnits="userSpaceOnUse"
       gradientTransform="translate(0,-2)" />
    <linearGradient
       id="linearGradient4526"
       osb:paint="solid">
      <stop
         style="stop-color:#ffffff;stop-opacity:1;"
         offset="0"
         id="stop4528" />
    </linearGradient>
  </defs>
  <path
     style="color:#bebebe;clip-rule:nonzero;display:inline;overflow:visible;visibility:visible;opacity:0.5;isolation:auto;mix-blend-mode:normal;color-interpolation:sRGB;color-interpolation-filters:linearRGB;solid-color:#000000;solid-opacity:1;fill:url(#linearGradient4175);fill-opacity:1;fill-rule:nonzero;stroke:none;stroke-width:1;stroke-linecap:butt;stroke-linejoin:miter;stroke-miterlimit:4;stroke-dasharray:none;stroke-dashoffset:0;stroke-opacity:1;marker:none;color-rendering:auto;image-rendering:auto;shape-rendering:auto;text-rendering:auto;enable-background:accumulate"
     d="m 0,5 0,1 10,0 0,-1 z m 0,2 0,1 10,0 0,-1 z m 0,2 0,1 10,0 0,-1 z m 0,2 0,1 10,0 0,-1 z"
     id="rect4194-8-1" />
  <g
     transform="translate(-433.00039,12)"
     style="display:inline"
     label="status"
     id="layer9" />
  <g
     transform="translate(-433.00039,12)"
     style="display:inline"
     id="layer10" />
  <g
     transform="translate(-433.00039,12)"
     style="display:inline"
     id="layer13" />
  <g
     transform="translate(-433.00039,12)"
     id="layer14" />
  <g
     transform="translate(-433.00039,12)"
     style="display:inline"
     id="layer15" />
  <g
     transform="translate(-433.00039,12)"
     style="display:inline"
     id="g71291" />
  <g
     transform="translate(-701.76365,603.60207)"
     style="display:inline"
     id="layer9-2-2" />
  <g
     transform="translate(-701.76365,603.60207)"
     style="display:inline"
     id="layer10-0-6" />
  <g
     transform="translate(-701.76365,603.60207)"
     id="layer11-5" />
  <g
     transform="translate(-701.76365,603.60207)"
     id="layer14-7-9" />
  <g
     transform="translate(-701.76365,603.60207)"
     style="display:inline"
     id="layer15-5-2" />
  <g
     transform="translate(-701.76365,603.60207)"
     style="display:inline"
     id="g71291-8-4" />
  <g
     transform="translate(-701.76365,603.60207)"
     style="display:inline"
     id="g4953-5" />
  <g
     transform="translate(-701.76365,603.60207)"
     style="display:inline"
     id="layer12-4" />
  <g
     transform="translate(-288.02844,406.39676)"
     style="display:inline"
     id="layer10-2" />
  <g
     transform="translate(-288.02844,406.39676)"
     id="layer11" />
  <g
     transform="translate(-288.02844,406.39676)"
     style="display:inline"
     id="layer13-0" />
  <g
     transform="translate(-288.02844,406.39676)"
     id="layer14-3" />
  <g
     transform="translate(-288.02844,406.39676)"
     style="display:inline"
     id="layer15-1" />
  <g
     transform="translate(-288.02844,406.39676)"
     style="display:inline"
     id="g71291-5" />
  <g
     transform="translate(-288.02844,406.39676)"
     style="display:inline"
     id="g4953" />
  <g
     transform="translate(-288.02844,406.39676)"
     style="display:inline"
     id="layer12" />
  <path
     id="rect4162-1-2-3"
     d="M 9.8972757,2.3502185 C 9.4420058,1.8949492 8.7220627,1.88186 8.2830522,2.3208699 L 4.3208683,6.2830549 C 3.8818592,6.7220639 3.8949481,7.4420074 4.3502207,7.8972767 L 10.102726,13.64978 c 0.455271,0.455272 1.175214,0.468361 1.614224,0.02935 l 3.962182,-3.9621871 c 0.439009,-0.4390102 0.42592,-1.1589534 -0.02935,-1.6142245 z"
     style="color:#fbc02d;clip-rule:nonzero;display:inline;overflow:visible;visibility:visible;opacity:1;isolation:auto;mix-blend-mode:normal;color-interpolation:sRGB;color-interpolation-filters:linearRGB;solid-color:#000000;solid-opacity:1;fill:#844cc8;fill-opacity:1;fill-rule:nonzero;stroke:none;stroke-width:1;stroke-linecap:butt;stroke-linejoin:miter;stroke-miterlimit:4;stroke-dasharray:none;stroke-dashoffset:0;stroke-opacity:1;marker:none;color-rendering:auto;image-rendering:auto;shape-rendering:auto;text-rendering:auto;enable-background:accumulate" />
  <path
     id="path3504-4"
     d="M 6.7519556,2.567383 C 5.4751106,2.5667361 4.5757713,3.8212349 4.9863306,5.0302736 l 2.421875,7.1386714 c 0.25706,0.75597 0.9671445,1.264183 1.7656246,1.263672 l 1.6503908,0 c 0.797762,-3.25e-4 1.506843,-0.508382 1.763672,-1.263672 L 15.013674,5.0302736 C 15.423969,3.822014 14.526024,2.5680737 13.250002,2.567383 l -1.527343,0 C 10.967633,2.5676723 10.287384,3.0234848 10.000002,3.7216799 9.7128912,3.024142 9.033614,2.5684633 8.2792993,2.567383 Z"
     style="color:#fbc02d;font-style:normal;font-variant:normal;font-weight:bold;font-stretch:normal;font-size:10px;line-height:125%;font-family:'Open Sans';-inkscape-font-specification:'Open Sans Bold';letter-spacing:0px;word-spacing:0px;clip-rule:nonzero;display:inline;overflow:visible;visibility:visible;opacity:0.07;isolation:auto;mix-blend-mode:normal;color-interpolation:sRGB;color-interpolation-filters:linearRGB;solid-color:#000000;solid-opacity:1;fill:#000000;fill-opacity:1;fill-rule:nonzero;stroke:none;stroke-width:1;stroke-linecap:butt;stroke-linejoin:miter;stroke-miterlimit:4;stroke-dasharray:none;stroke-dashoffset:0;stroke-opacity:1;marker:none;color-rendering:auto;image-rendering:auto;shape-rendering:auto;text-rendering:auto;enable-background:accumulate" />
  <path
     id="path3504"
     d="M 6.750977,3.5185551 C 6.126519,3.5187276 5.6869615,4.1323181 5.8876958,4.7236332 l 2.421875,7.1386718 c 0.1254329,0.36999 0.4726069,0.618982 0.863281,0.619141 l 1.6503912,0 c 0.390674,-1.59e-4 0.737848,-0.249151 0.863281,-0.619141 L 14.112305,4.7236332 C 14.313039,4.1323182 13.873482,3.5187277 13.249024,3.5185551 l -1.527344,0 C 11.324683,3.518404 10.973201,3.7751045 10.85254,4.1533207 L 9.9970708,6.8388676 9.1474618,4.1552738 C 9.0274918,3.7762846 8.6758451,3.5186739 8.2783208,3.5185551 Z"
     style="color:#fbc02d;font-style:normal;font-variant:normal;font-weight:bold;font-stretch:normal;font-size:10px;line-height:125%;font-family:'Open Sans';-inkscape-font-specification:'Open Sans Bold';letter-spacing:0px;word-spacing:0px;clip-rule:nonzero;display:inline;overflow:visible;visibility:visible;opacity:0.2;isolation:auto;mix-blend-mode:normal;color-interpolation:sRGB;color-interpolation-filters:linearRGB;solid-color:#000000;solid-opacity:1;fill:#000000;fill-opacity:1;fill-rule:nonzero;stroke:none;stroke-width:1;stroke-linecap:butt;stroke-linejoin:miter;stroke-miterlimit:4;stroke-dasharray:none;stroke-dashoffset:0;stroke-opacity:1;marker:none;color-rendering:auto;image-rendering:auto;shape-rendering:auto;text-rendering:auto;enable-background:accumulate" />
  <path
     id="text3368"
     d="m 6.7509768,4.4306644 2.4218748,7.1386716 1.6503914,0 2.425781,-7.1386716 -1.527344,0 -1.353515,4.2480469 C 10.159831,9.4274093 10.038738,9.9514973 10.00293,10.250977 9.9834,10.120768 9.93197,9.8896483 9.8505866,9.5576173 9.7724566,9.2223313 9.6969406,8.9293623 9.6220706,8.6787113 l -1.34375,-4.2480469 z"
     style="font-style:normal;font-variant:normal;font-weight:bold;font-stretch:normal;font-size:10px;line-height:125%;font-family:'Open Sans';-inkscape-font-specification:'Open Sans Bold';letter-spacing:0px;word-spacing:0px;fill:#ffffff;fill-opacity:1;stroke:none;stroke-width:1px;stroke-linecap:butt;stroke-linejoin:miter;stroke-opacity:1" />
</svg>

<?xml version="1.0" encoding="UTF-8"?>
<svg id="svg7384" width="16.036" height="16" version="1.1" xmlns="http://www.w3.org/2000/svg" xmlns:cc="http://creativecommons.org/ns#" xmlns:dc="http://purl.org/dc/elements/1.1/" xmlns:osb="http://www.openswatchbook.org/uri/2009/osb" xmlns:rdf="http://www.w3.org/1999/02/22-rdf-syntax-ns#" xmlns:xlink="http://www.w3.org/1999/xlink">
 <metadata id="metadata90">
  <rdf:RDF>
   <cc:Work rdf:about="">
    <dc:format>image/svg+xml</dc:format>
    <dc:type rdf:resource="http://purl.org/dc/dcmitype/StillImage"/>
    <dc:title>elementary Symbolic Icon Theme</dc:title>
   </cc:Work>
  </rdf:RDF>
 </metadata>
 <title id="title9167">elementary Symbolic Icon Theme</title>
 <defs id="defs7386">
  <linearGradient id="linearGradient4175" x1="2.3022" x2="0" y1="5.7508" y2="7" gradientTransform="translate(0,-2)" gradientUnits="userSpaceOnUse">
   <stop id="stop4171" style="stop-color:#403757" offset="0"/>
   <stop id="stop4173" style="stop-color:#403757;stop-opacity:0" offset="1"/>
  </linearGradient>
 </defs>
 <path id="rect4194-8-1" d="m0 5v1h10v-1zm0 2v1h10v-1zm0 2v1h10v-1zm0 2v1h10v-1z" style="color-rendering:auto;color:#bebebe;fill:url(#linearGradient4175);image-rendering:auto;isolation:auto;mix-blend-mode:normal;opacity:.5;shape-rendering:auto;solid-color:#000000"/>
 <path id="rect4162-1-2-3" d="m9.8973 2.3502c-0.45527-0.45527-1.1752-0.46836-1.6142-0.029349l-3.9622 3.9622c-0.43901 0.43901-0.42592 1.159 0.029352 1.6142l5.7525 5.7525c0.45527 0.45527 1.1752 0.46836 1.6142 0.02935l3.9622-3.9622c0.43901-0.43901 0.42592-1.159-0.02935-1.6142z" style="color-rendering:auto;color:#fbc02d;fill:#844cc8;image-rendering:auto;isolation:auto;mix-blend-mode:normal;shape-rendering:auto;solid-color:#000000"/>
 <path id="path3504-4" d="m6.752 2.5674c-1.2768-6.469e-4 -2.1762 1.2539-1.7656 2.4629l2.4219 7.1387c0.25706 0.75597 0.96714 1.2642 1.7656 1.2637h1.6504c0.79776-3.25e-4 1.5068-0.50838 1.7637-1.2637l2.4258-7.1387c0.4103-1.2083-0.48765-2.4622-1.7637-2.4629h-1.5273c-0.75503 2.893e-4 -1.4353 0.4561-1.7227 1.1543-0.28711-0.69754-0.96639-1.1532-1.7207-1.1543z" style="color-rendering:auto;color:#fbc02d;image-rendering:auto;isolation:auto;mix-blend-mode:normal;opacity:.07;shape-rendering:auto;solid-color:#000000"/>
 <path id="path3504" d="m6.751 3.5186c-0.62446 1.725e-4 -1.064 0.61376-0.86328 1.2051l2.4219 7.1387c0.12543 0.36999 0.47261 0.61898 0.86328 0.61914h1.6504c0.39067-1.59e-4 0.73785-0.24915 0.86328-0.61914l2.4258-7.1387c0.20073-0.59132-0.23882-1.2049-0.86328-1.2051h-1.5273c-0.397-1.511e-4 -0.74848 0.25655-0.86914 0.63477l-0.85547 2.6855-0.84961-2.6836c-0.11997-0.37899-0.47162-0.6366-0.86914-0.63672z" style="color-rendering:auto;color:#fbc02d;image-rendering:auto;isolation:auto;mix-blend-mode:normal;opacity:.2;shape-rendering:auto;solid-color:#000000"/>
 <path id="text3368" d="m6.751 4.4307 2.4219 7.1387h1.6504l2.4258-7.1387h-1.5273l-1.3535 4.248c-0.20833 0.7487-0.32943 1.2728-0.36524 1.5723-0.01953-0.13021-0.07096-0.36133-0.15234-0.69336-0.07813-0.33529-0.15365-0.62826-0.22852-0.87891l-1.3438-4.248z" style="fill:#fff"/>
</svg>
